icon_installer/data/icons/scalable/actions/show-phonelink-delete-symbolic.svg

<?xml version="1.0" encoding="UTF-8"?>
<svg height="16px" viewBox="0 0 16 16" width="16px" xmlns="http://www.w3.org/2000/svg">
    <g fill="#222222">
        <path d="m 4.199219 0 c -1.203125 0 -2.199219 1 -2.199219 2.199219 v 2.800781 h 2 v -2.800781 c 0 -0.128907 0.074219 -0.199219 0.199219 -0.199219 h 7.605469 c 0.125 0 0.195312 0.070312 0.195312 0.199219 v 9.613281 c 0 0.128906 -0.070312 0.199219 -0.195312 0.199219 l -9.804688 -0.011719 v 1.800781 c 0 1.199219 0.996094 2.199219 2.199219 2.199219 h 7.605469 c 1.203124 0 2.195312 -1 2.195312 -2.199219 v -11.601562 c 0 -1.199219 -0.992188 -2.199219 -2.195312 -2.199219 z m 3.800781 12.902344 c 0.550781 0 1 0.382812 1 0.933594 c 0 0.550781 -0.449219 1 -1 1 s -1 -0.449219 -1 -1 c 0 -0.550782 0.449219 -0.933594 1 -0.933594 z m 0 0"/>
        <path d="m 1 6 h 1.375 l 1.125 1.09375 l 1.09375 -1.09375 h 1.40625 v 1.46875 l -1.09375 1.0625 l 1.09375 1.0625 v 1.40625 h -1.4375 l -1.0625 -1.0625 l -1.0625 1.0625 h -1.4375 v -1.40625 l 1.0625 -1.0625 l -1.0625 -1.0625 z m 0 0"/>
    </g>
</svg>

<svg xmlns="http://www.w3.org/2000/svg" width="16" height="16"><g fill="#222"><path d="M4.2 0C2.995 0 2 1 2 2.2V5h2V2.2c0-.13.074-.2.2-.2h7.605c.125 0 .195.07.195.2v9.613c0 .128-.07.199-.195.199L2 12v1.8C2 15 2.996 16 4.2 16h7.605C13.008 16 14 15 14 13.8V2.2C14 1 13.008 0 11.805 0zM8 12.902c.55 0 1 .383 1 .934 0 .55-.45 1-1 1s-1-.45-1-1 .45-.934 1-.934zm0 0"/><path d="M1 6h1.375L3.5 7.094 4.594 6H6v1.469L4.906 8.53 6 9.594V11H4.562L3.5 9.937 2.437 11H1V9.594L2.063 8.53 1 7.47zm0 0"/></g></svg>
